X:342
T:Star of Munster
Z: id:dc-reel-318
M:C
L:1/8
K:A Dorian
ed|c2Ac B2GB|AGEF GEDF|EAAB cBcd|eaaf gedB|!
c2Ac B2GB|AGEF GEDF|EAAB cded|cABG A2:|!
ed|eaab ageg|agbg agef|gfga gfef|geaf gedg|!
eaab ageg|agbg agef|g3e a3g|b3a gf:|!

